X: 35
T: Come Dance and Sing
M: C|
R: reel
K: D
A2| "D"d2cd "A7"e2de| "D"f2d2 de dc| "Em"B2e2 ef ed| "A7"c2A2 A2 (3ABc|
"D"d2cd "A7"e2de| "D"f2d2 de dc| "Em"B2e2 "A7"dcBc| "D"d4 d2 :|
|:AG| "D"F2A2 AB AG| F2A2 A3G|"D" F2A2 "Bm"d2f2| "Em" edcB "A7"A2 AG|
"D"F2A2 AB AG| F2A2 A2Bc|"G" d2d2 "Em"fefg| "A"a2A2 A2 :|
